X:73
T:Tregib
M:2/4
L:1/16
Q:90
C:Ceri Rhys Matthews
R:Scottische
K:D
DEFE D2D2 | EFGF E2E2 | FGA2 FGA2 | BAGF EGF
E | DEFE D2D2 | EFGF E2E2 | FGA2 FGAB |
AGEF D4 :||: BAGA B2B2 | AGFG A2A2 | GFEF
G2G2 | FEDE FGA2 | BAGA B2B2 | AGFG A2A2
| GFEF G2G2 | F2E2 D4 :||
